src/images/crypto-icon-svg/mco.svg

<svg xmlns="http://www.w3.org/2000/svg" width="32" height="32" viewBox="0 0 32 32">
  <g fill="none" fill-rule="evenodd">
    <circle cx="16" cy="16" r="16" fill="#103F68"/>
    <path fill="#FFF" fill-rule="nonzero" d="M15.9802995,5.01849034 L25.5,10.50132 L25.5,21.50033 L15.9912442,27 L15.914379,26.9811983 L6.5,21.50033 L6.5,10.50132 L15.9143552,5.01849034 L15.9802995,5.01849034 Z M15.9488696,6.15561827 L7.5,11.0761585 L7.5,20.925451 L15.9478744,25.8447213 L16.9802995,25.2475537 L24.5,20.923494 L24.5,11.078076 L16.9802995,6.72763022 L15.9488696,6.15561827 Z M8.8093318,16.7669353 L11.3103053,14.8954679 L13.5210253,16.3082262 L13.5210253,18.848287 L15.1935945,20.4600392 L15.1928283,21.2160843 L13.5812212,22.7266345 L12.2191532,22.7266345 L8.8093318,16.7669353 Z M16.7121717,21.2179544 L16.7088882,20.4570691 L18.3757661,18.848617 L18.3757661,16.3082262 L20.5627362,14.8781976 L23.058894,16.7669353 L19.6660369,22.7093642 L18.3222465,22.7093642 L16.7121717,21.2179544 Z M14.3413306,16.3082262 L13.5275922,14.1766035 L18.3658065,14.1766035 L17.568485,16.3082262 L17.8039055,18.6899938 L15.9368491,18.6940639 L14.0920104,18.6973639 L14.3413306,16.3082262 Z M15.9368491,13.5933719 L11.3389804,13.5911718 L12.1937615,9.77079542 L19.6580472,9.77079542 L20.5587961,13.5961219 L15.9368491,13.5933719 Z"/>
  </g>
</svg>

<svg xmlns="http://www.w3.org/2000/svg" width="32" height="32"><g fill="none" fill-rule="evenodd"><circle cx="16" cy="16" r="16" fill="#103F68"/><path fill="#FFF" fill-rule="nonzero" d="M15.98 5.018l9.52 5.483v11L15.991 27l-.077-.019-9.414-5.48v-11l9.414-5.483h.066zm-.031 1.138L7.5 11.076v9.85l8.448 4.919 1.032-.597 7.52-4.325v-9.845l-7.52-4.35-1.031-.572zm-7.14 10.61l2.501-1.87 2.211 1.412v2.54l1.673 1.612-.001.756-1.612 1.51H12.22l-3.41-5.96zm7.903 4.452l-.003-.76 1.667-1.61v-2.54l2.187-1.43 2.496 1.889-3.393 5.942h-1.344l-1.61-1.491zm-2.37-4.91l-.814-2.131h4.838l-.798 2.131.236 2.382-1.867.004-1.845.003.25-2.389zm1.595-2.715l-4.598-.002.855-3.82h7.464l.9 3.825-4.621-.003z"/></g></svg>
